X:1
T:King’s Norton, CM
T:Jeremiah Clarke (1659-1707)
T:King’s Norton, CM
T:Public Domain
C:Jeremiah Clarke (1659-1707)
Z:Public Domain
%%score ( 1 2 ) ( 3 4 )
L:1/8
M:3/4
K:Ab
V:1 treble 
V:2 treble 
V:3 bass 
V:4 bass 
V:1
 [CA]2 D2 z G x | [C=E]2 C4 | (F>G [DA]2) [FB]2 | [=Ec]6 | [Ec]2 (dc) (BA) | [EA]4 [EG]2 | %6
 [EA]4 [Ac]2 | (e2 Bc) [Bd]2 | (d2 AB) [Fc]2 | (B>A GA) (GF) | [C=E]4 [G=e]2 | (f>e d2) (dc) | %12
 [CA]4 (GF) | [A,F]6 |] %14
V:2
 x2 F3 D2 | x2 C4 | A,2 x4 | x6 | x2 F2 C2 | x6 | x6 | B4 x2 | A4 x2 | C4 =B,2 | x6 | A4 F2 | %12
 x4 C2 | x6 |] %14
V:3
 [F,A,]2 [D,A,]2 [B,,B,]2 x | [C,G,]2 [C,=E,]4 | [D,F,]4 [D,F,]2 | (C,3 D, C,B,,) | %4
 [A,,A,]2 [D,A,]2 F,2 | [E,B,]4 [E,B,]2 | [A,,C]4 [A,E]2 | [G,E]4 [G,E]2 | [F,A,]4 [F,A,]2 | %9
 (E,2 F,2) [D,F,]2 | [C,G,]4 [C,C]2 | (C2 D2) [A,,F,]2 | [C,F,]4 (=E,F,) | [F,,F,]6 |] %14
V:4
 x7 | x6 | x6 | G,6 | x4 F,2 | x6 | x6 | x6 | x6 | C4 x2 | x6 | F,,4 x2 | x4 C,2 | x6 |] %14

